contributed-vectors/reicast.svg

<?xml version="1.0" encoding="UTF-8" standalone="no"?>
<svg
   xmlns:dc="http://purl.org/dc/elements/1.1/"
   xmlns:cc="http://creativecommons.org/ns#"
   xmlns:rdf="http://www.w3.org/1999/02/22-rdf-syntax-ns#"
   xmlns:svg="http://www.w3.org/2000/svg"
   xmlns="http://www.w3.org/2000/svg"
   xmlns:sodipodi="http://sodipodi.sourceforge.net/DTD/sodipodi-0.dtd"
   xmlns:inkscape="http://www.inkscape.org/namespaces/inkscape"
   viewBox="0 0 192 192"
   version="1.1"
   id="svg16"
   sodipodi:docname="reicast.svg"
   inkscape:version="0.92.4 (5da689c313, 2019-01-14)">
  <metadata
     id="metadata20">
    <rdf:RDF>
      <cc:Work
         rdf:about="">
        <dc:format>image/svg+xml</dc:format>
        <dc:type
           rdf:resource="http://purl.org/dc/dcmitype/StillImage" />
        <dc:title></dc:title>
      </cc:Work>
    </rdf:RDF>
  </metadata>
  <sodipodi:namedview
     pagecolor="#ffffff"
     bordercolor="#666666"
     borderopacity="1"
     objecttolerance="10"
     gridtolerance="10"
     guidetolerance="10"
     inkscape:pageopacity="0"
     inkscape:pageshadow="2"
     inkscape:window-width="1920"
     inkscape:window-height="1017"
     id="namedview18"
     showgrid="true"
     inkscape:zoom="3.4766083"
     inkscape:cx="27.171743"
     inkscape:cy="82.169494"
     inkscape:window-x="-8"
     inkscape:window-y="-8"
     inkscape:window-maximized="1"
     inkscape:current-layer="svg16"
     inkscape:snap-global="false">
    <inkscape:grid
       type="xygrid"
       id="grid827"
       spacingx="4"
       spacingy="4" />
  </sodipodi:namedview>
  <defs
     id="defs4">
    <style
       id="style2">.a{fill:none;stroke:#b1b5bd;stroke-linecap:round;stroke-linejoin:round;isolation:isolate;opacity:0.63;}</style>
  </defs>
  <path
     style="fill:#728dbe;stroke-width:7.05508137"
     d="m 152.86665,74.812291 8.09809,39.705549 23.1374,-3.78147 -8.09809,-46.086817 -22.44329,-29.306477 -39.10222,-17.96208 -53.447429,4.49054 -43.729697,39.705548 -9.0235897,52.468096 20.3609177,35.92408 48.819936,23.87061 38.639472,-8.74474 27.99627,-34.50602 -1.38824,-47.03215 -30.31001,-28.12474 -38.176732,-1.181737 -27.996267,24.343275 0.462679,36.160412 25.451156,24.81602 30.772754,-4.01788 10.6432,-17.72567 -0.46268,-21.034464 -15.502055,-13.944211 -17.353057,2.83606 -6.015737,15.362265 11.568707,9.45376 10.643217,1.41807 -0.462679,10.39907 -13.882448,2.83605 L 61.705311,107.6639 62.167988,87.574759 79.058297,70.08542 98.030981,69.376267 120.93701,83.793215 128.80374,115.93575 114.92128,141.46077 92.246624,151.62351 69.340596,152.33266 33.014852,120.66279 32.783473,80.720822 62.630738,46.214809 111.45068,42.669676 Z"
     id="path833"
     inkscape:connector-curvature="0" />
</svg>

<svg xmlns="http://www.w3.org/2000/svg" id="svg16" version="1.1" viewBox="0 0 192 192"><defs id="defs4"><style id="style2">.a{fill:none;stroke:#b1b5bd;stroke-linecap:round;stroke-linejoin:round;isolation:isolate;opacity:.63}</style></defs><path id="path833" d="m152.867 74.812 8.098 39.706 23.137-3.782-8.098-46.086-22.443-29.307-39.102-17.962-53.448 4.49-43.73 39.706-9.023 52.468 20.36 35.924 48.82 23.87 38.64-8.744 27.996-34.506-1.388-47.032-30.31-28.125L74.2 54.25 46.203 78.594l.463 36.16 25.451 24.816 30.773-4.018 10.643-17.725-.463-21.035-15.502-13.944-17.353 2.836-6.016 15.362 11.57 9.454 10.642 1.418-.462 10.4-13.883 2.835-20.36-17.49.462-20.088 16.89-17.49 18.973-.709 22.906 14.417 7.867 32.143-13.883 25.525-22.674 10.163-22.906.709-36.326-31.67-.232-39.942 29.848-34.506 48.82-3.545Z" style="fill:#728dbe;stroke-width:7.05508137"/></svg>
